X: 8273
T: Corn Riggs
R: barndance
M: 4/4
K: Dmajor
|:D2|G2 GA B/c/B AG|F2 FG A2 D2|G2 GA BcAB|G2 d2 d2 D2|
G3 A B3 G|FEFG A2 D2|E2 EG AGG/F/E|D2 G2 G2:|
|:D2|G2 d2 BcdG|F2 A2 A2 D2|G2 dc BcA/B/A|G2 d2 d2 D2|
G2 d2 edcB|cBAG GFED|E3 G AGFE|D2 G2 G2:|

